X: 41468
T: Twopenny, The
R: jig
M: 6/8
K: Gdorian
|:GFD B2c|dBG GFD|G2A B2c|dBG G2B|
GFD B2c|dBG AGA|FAc fed|cAF FGA:|
|:dfd cec|BdB AGF|G2A B2c|dBG G2c|
[1dfd cec|BdB AGA|FAc fed|cAF FAc:|
[2dBd cec|cdB AGA|FAc fed|cAF FAc||

